X:8298
T:Judy's Reel
M:2/4
L:1/16
K:D
A2|FAAB AFED|FAAB ABde|fBBA Bcde|fBBA BcdA|!
FAAB AFED|FAAB ABde|fBBA BcdB|AFEF D2:|!
|:eg|fgab afde|fdad bdad|efga beef|(3gfe be gfeg|!
fgaf bfaf|defd efde|fBBA BcdB|AFEF D2:|!
